X:1
T:Creator, 88.88.88
T:Creator, 88.88.88
T:Franz Josef Haydn (1732-1809)
T:Public Domain Courtesy of the Cyber Hymnal™
C:Franz Josef Haydn (1732-1809)
Z:Public Domain
Z:Courtesy of the Cyber Hymnal™
%%score ( 1 2 ) ( 3 4 )
L:1/8
Q:1/4=115
M:3/4
K:G
V:1 treble 
V:2 treble 
V:3 bass 
V:4 bass 
V:1
 [DG]2 D2 [GB]2 | ([GB]2 [FA]2) G2 | (G2 F2) [DG]2 | [FA]6 | [DG]2 D2 [GB]2 | (B2 A2) [=F^G]2 | %6
 (A>B c2) [DF]2 | [DG]4 [Gd]2 | d4 [Gd]2 | (d2 z [EB]2) x | [Ec]4 [^GB]2 | A4 [Ac]2 | c4 [Fc]2 | %13
 (c2 B2) A2 | [GB]2 [G^c]4 | [Fd]6 | [GB]2 [GB]2 [FA]2 | G4 D2 | c4 [GB]2 | [FA]6 | %20
 [Gd]2 [Gd]2 [Ge]2 | d4 (cA) | [DG]4 [FA]2 | G6 |] %24
V:2
 x2 D2 x2 | x4 G2 | D4 x2 | x6 | x2 D2 x2 | D4 x2 | E4 x2 | x6 | (G2 F2) x2 | F3 (c2 E) | x6 | %11
 A4 x2 | (A2 G2) x2 | G4 A2 | x6 | x6 | x6 | (G2 D2) D2 | (D2 A2) x2 | x6 | x6 | (G2 =F2) E2 | x6 | %23
 G6 |] %24
V:3
 [G,B,]2 [G,B,]2 [G,D]2 | ([G,D]2 [D,C]2) [E,B,]2 | ([B,,D]2 [A,,C]2) [G,,B,]2 | [D,D]6 | %4
 [G,B,]2 [G,B,]2 [G,,D]2 | [C,C]4 [B,,D]2 | [C,C]4 [D,C]2 | [G,,B,]4 [G,B,]2 | %8
 ([G,B,]2 [A,C]2) [B,D]2 | [A,D]4 [^G,D]2 | [A,C]4 [E,D]2 | [A,,C]4 E2 | D4 [D,D]2 | %13
 [G,D]4 [F,D]2 | [G,D]2 [E,A,]4 | [D,A,]6 | G,2 [G,D]2 [D,C]2 | [G,,B,]4 [G,B,]2 | %18
 (A,2 D2) [G,D]2 | D6 | [B,,D]2 [G,,B,]2 [C,C]2 | [B,,G,]4 (G,C) | [D,B,]4 [D,C]2 | [G,,B,]6 |] %24
V:4
 x6 | x6 | x6 | x6 | x6 | x6 | x6 | x6 | x6 | x6 | x6 | x4 A,G, | (F,2 E,2) x2 | x6 | x6 | x6 | %16
 G,2 x4 | x6 | F,4 x2 | D,4 C,2 | x6 | x4 C,2 | x6 | x6 |] %24

